!!!COM: John Williams
!!!OTL: Victory
!!!GAW: Star Wars: Episode 9
!!!ODT: 2019
!!!ENC: Frank Lehman
!!!EED: Claire Arthur
!!!EED2: John McNamara
**kern	**harte	**harm	**altharm	**pedal	**cadence	**text
*clefG2	*	*	*	*	*	*
*k[b-e-a-d-g-]	*k[b-e-a-d-g-]	*k[b-e-a-d-g-]	*	*	*	*
*D-:	*D-:	*D-:	*	*	*	*
*M4/4	*M4/4	*M4/4	*	*	*	*
=1	=1	=1	=1	=1	=1	=1
4aa-	Db/3	Db:	.	.	.	}**Bass follows melody in parallel 10ths in mm. 1,3,5,7
4gg-	.	Ib	.	.	.	.
4aa-	.	.	.	.	.	.
4dd-	Db	I	.	.	.	.
=2	=2	=2	=2	=2	=2	=2
4ee-	Eb:min7/m7	ii7d	.	.	.	.
4ff	.	.	.	.	.	.
4gg-	.	V7b	.	.	{HC}	.
4a-	Ab:7/3	.	.	.	//	.
=3	=3	=3	=3	=3	=3	=3
4aa-	Db/3	Ib	.	.	.	.
4gg-	.	.	.	.	.	.
4aa-	.	.	.	.	.	.
4ddd-	Db/5	Ic	.	.	.	.
=4	=4	=4	=4	=4	=4	=4
4aan	Gb:min	iv=Fb:ii	.	.	.	.
4gg#X	.	.	.	.	.	.
4aa	B:7(2,*3)	-VII7=V7/Fb	Var1:V7/bIII	.	{HC}	}**Enharmonic modulation here to key minor third above tonic (bIII/Db)
4bn	B:7	.	.	.	//	.
=5||	=5||	=5||	=5||	=5||	=5||	=5||
*k[f#c#g#d#]	*k[f#c#g#d#]	*k[f#c#g#d#]	*	*	*	*
*E:	*E:	*E:	*	*	*	*
4bb	E/5	Ic	.	.	.	.
4aa	.	.	.	.	.	.
4bb	.	.	.	.	.	.
4eee	.	.	.	.	.	.
=6	=6	=6	=6	=6	=6	=6
2.aa	B:7(2,*3,4)	V	.	.	.	.
4bb	B:7	.	.	.	.	.
=7	=7	=7	=7	=7	=7	=7
4bb	B/4	Ic	.	.	.	.
4aa#X	.	.	.	.	.	.
4bb	.	.	.	.	.	.
4eee	E	I	.	.	.	.
=8	=8	=8	=8	=8	=8	=8
2aa	F#:min/5	iic=Db:iv	.	.	.	.
2b#X	G#	V7/vi=Db:V	.	.	{HC}	.
=9||	=9||	=9||	=9||	=9||	=9||	=9||
*k[b-e-a-d-g-]	*k[b-e-a-d-g-]	*k[b-e-a-d-g-]	*	*	*	*
*D-:	*D-:	*D-:	*	*	*	*
4a-	Db/3	Db:	.	.	.	.
4gn	.	Ib	.	.	.	.
4a-	.	.	.	.	.	.
4d-	.	.	.	.	.	.
=10	=10	=10	=10	=10	=10	=10
4e-	Eb:min7/m3	ii7b	.	.	.	.
4f	.	.	.	.	.	.
4g-	.	V7b	.	.	{HC}	.
4A-	Ab:7/3	.	.	.	//	.
=11	=11	=11	=11	=11	=11	=11
4a-	Db	I	.	.	.	.
4gn	.	.	.	.	.	.
4a-	Db:maj7/3	I7d	.	.	.	.
4dd-	Bb:min7	vi7	.	.	.	.
=12	=12	=12	=12	=12	=12	=12
2ff-X	Gb:min7	iv7	.	.	.	.
2ee-	Eb:min7(D5)	iiD5	.	.	.	.
=13	=13	=13	=13	=13	=13	=13
4dd-	Db/5	Ic	.	.	.	.
4a-	.	.	.	.	.	.
4ggn	Db/7	I7d	.	.	.	.
4aa-	.	.	.	.	.	.
=14	=14	=14	=14	=14	=14	=14
2aan	Eb/m3	-IIb	.	.	.	.
2cc	Ab	V	.	.	;;	.
=15	=15	=15	=15	=15	=15	=15
4ddd-	Db/3	Ib	.	.	.	.
4ccc	.	.	.	.	.	.
4ddd-	Db/5	Ic	.	.	.	.
4dd-	.	.	.	.	.	.
=16	=16	=16	=16	=16	=16	=16
4ee--	Db/5	-II	.	.	.	.
4dd-X	.	.	.	.	.	.
4cc	Ab:7	V	.	.	.	.
4c	.	.	.	.	{PAC}	.
=17	=17	=17	=17	=17	=17	=17
1d-	Db	I	.	.	.	.
=	=	=	=	=	=	=
*-	*-	*-	*-	*-	*-	*-
